!!!COM: Vivaldi, Antonio Lucio
!!!CDT: 1678/03/04-1741/08/28
!!!OPR: 12 sonatas for two violins and basso continuo
!!!OTL: Sonata in F major, op. @{OPS}, no. @{ONM} (@{SCT})
!!!OPS: 1
!!!ONM: 5
!!!OMV: 2. Allemanda
!!!SCT: RV 69
!!!SCA: Antonio Vivaldi: Thematisch-systematisches Verzeichnis seiner Werke (Ryom-Verzeichnis)
!!!OMD: Presto
!!!key: F
**kern	**dynam	**fb	**kern	**dynam	**kern	**dynam
*part3	*	*	*part2	*	*part1	*
*staff3	*	*	*staff2	*	*staff1	*
*ICstr&ICklav	*	*	*ICstr	*	*ICstr	*
*Icello&Icemba	*	*	*Ivioln	*	*Ivioln	*
*	*	*	*I#2	*	*I#1	*
*I"Violoncello\nContinuo	*	*	*I"Violin 2	*	*I"Violin 1	*
*I'bc	*	*	*I'v2	*	*I'v1	*
*>[A,A,B,B]	*>[A,A,B,B]	*>[A,A,B,B]	*>[A,A,B,B]	*>[A,A,B,B]	*>[A,A,B,B]	*>[A,A,B,B]
*>norep[A,B]	*>norep[A,B]	*>norep[A,B]	*>norep[A,B]	*>norep[A,B]	*>norep[A,B]	*>norep[A,B]
*>A	*>A	*>A	*>A	*>A	*>A	*>A
*clefF4	*	*	*clefG2	*	*clefG2	*
*k[b-]	*	*	*k[b-]	*	*k[b-]	*
*F:	*	*	*F:	*	*F:	*
*M4/4	*	*	*M4/4	*	*M4/4	*
*met(c)	*	*	*met(c)	*	*met(c)	*
*MM220	*	*	*MM220	*	*MM220	*
8F\	.	.	8cc\	.	8ff\	.
=1	=1	=1	=1	=1	=1	=1
4F\	.	.	8cc\L	.	4.ff\	.
.	.	.	8a\	.	.	.
2A\	.	6	8cc\	.	.	.
.	.	.	8ff\J	.	8cc\	.
.	.	.	4.cc\	.	8ff\L	.
.	.	.	.	.	8cc\	.
4F\	.	.	.	.	8a\	.
.	.	.	8cc\	.	8ff\J	.
=2	=2	=2	=2	=2	=2	=2
4C/	.	.	8ee\L	.	4.gg\	.
.	.	.	8cc\	.	.	.
2c\	.	.	8ee\	.	.	.
.	.	.	8gg\J	.	8ee\	.
.	.	.	4.cc\	.	8gg\L	.
.	.	.	.	.	8ee\	.
4E\	.	6	.	.	8cc\	.
.	.	.	8cc\	.	8gg\J	.
=3	=3	=3	=3	=3	=3	=3
4F\	.	.	8cc\L	.	4.aa\	.
.	.	.	8a\	.	.	.
2A\	.	6	8cc\	.	.	.
.	.	.	8ff\J	.	8cc\	.
.	.	.	4.cc\	.	8ff\L	.
.	.	.	.	.	8cc\	.
4F\	.	.	.	.	8a\	.
.	.	.	8cc\	.	8ff\J	.
=4	=4	=4	=4	=4	=4	=4
4C/	.	.	8ee\L	.	4.gg\	.
.	.	.	8cc\	.	.	.
2c\	.	.	8ee\	.	.	.
.	.	.	8gg\J	.	8ee\	.
.	.	.	4.cc\	.	8gg\L	.
.	.	.	.	.	8ee\	.
4B-y\	.	4 2	.	.	8cc\	.
.	.	.	8cc\	.	8gg\J	.
=5	=5	=5	=5	=5	=5	=5
4A\	.	6	8ff\L	.	4.aa\	.
.	.	.	8cc\	.	.	.
2F\	.	.	8ff\	.	.	.
.	.	.	8aa\J	.	8cc\	.
.	.	.	4.cc\	.	8aa\L	.
.	.	.	.	.	8ff\	.
4F\	.	.	.	.	8cc\	.
.	.	.	8cc\	.	8aa\J	.
!!LO:LB:g=original
=6	=6	=6	=6	=6	=6	=6
[2F\	.	4nr 2	8dd\L	.	4.bbn\	.
.	.	.	8g\	.	.	.
.	.	.	8bn\	.	.	.
.	.	.	8dd\J	.	8dd\	.
4F\]	.	.	4.g/	.	8bbn\L	.
.	.	.	.	.	8gg\	.
4F\	.	.	.	.	8dd\	.
.	.	.	8dd\	.	8bbn\J	.
=7	=7	=7	=7	=7	=7	=7
4E\	.	6	8gg\L	.	8ccc\L	.
.	.	.	8ee\	.	8gg\	.
4F\	.	6	8dd\	.	8ff\	.
.	.	.	8cc\J	.	8ee\J	.
4G\	.	n	4.bn\	.	4.dd\	.
4GG/	.	.	.	.	.	.
.	.	.	8b\	.	8gg\	.
=8	=8	=8	=8	=8	=8	=8
2C/	.	.	8cc\L	.	4.ee\	.
.	.	.	8g\	.	.	.
.	.	.	8cc\	.	.	.
.	.	.	8ee\J	.	8cc\	.
2E\	.	6	4.cc\	.	8gg\L	.
.	.	.	.	.	8ee\	.
.	.	.	.	.	8cc\	.
.	.	.	8g/	.	8ee\J	.
=9	=9	=9	=9	=9	=9	=9
8F\L	.	.	4f/	.	8a/L	.
8G\	.	.	.	.	8bn/J	.
8A\	.	5	4e/	.	2cc\	.
8E\J	.	.	.	.	.	.
8F\L	.	6 5	4.d/	.	.	.
8D\	.	.	.	.	.	.
8G\	.	n	.	.	4bn\t	.
8GG\J	.	.	8g/	.	.	.
=10	=10	=10	=10	=10	=10	=10
[2C/	.	.	[2e/	.	[2cc\	.
4.C/]	.	.	4.e/]	.	4.cc\]	.
=:|!|:	=:|!|:	=:|!|:	=:|!|:	=:|!|:	=:|!|:	=:|!|:
*>B	*>B	*>B	*>B	*>B	*>B	*>B
8A\	.	.	8ee\	.	8cc#X\	.
=11	=11	=11	=11	=11	=11	=11
4A\	.	#	8ee\L	.	4.cc#X\	.
.	.	.	8cc#X\	.	.	.
2c#X\	.	6 5	8ee\	.	.	.
.	.	.	8gg\J	.	8ee\	.
.	.	.	4.a/	.	8gg\L	.
.	.	.	.	.	8ee\	.
4A\	.	.	.	.	8cc#X\	.
.	.	.	8cc#X\	.	8gg\J	.
=12	=12	=12	=12	=12	=12	=12
4d\	.	.	8dd\L	.	4.ff\	.
.	.	.	8a\	.	.	.
2F\	.	6	8dd\	.	.	.
.	.	.	8ff\J	.	8a/	.
.	.	.	4.a/	.	8dd\L	.
.	.	.	.	.	8a\J	.
4D\	.	.	.	.	8f\L	.
.	.	.	8a/	.	8ff\J	.
!!LO:LB:g=original
=13	=13	=13	=13	=13	=13	=13
8G\L	.	6-r	8b-y/L	.	8ee-X\L	.
8A\	.	#	8a/	.	8cc#X\J	.
8B-y\	.	6	8g/	.	2dd\	.
8F\J	.	.	8f/J	.	.	.
8G\L	.	6 5	2e/	.	.	.
8E\	.	.	.	.	.	.
8A\	.	#	.	.	4cc#X\	.
8AA\J	.	.	.	.	.	.
=14	=14	=14	=14	=14	=14	=14
4D\	.	.	8d/L	.	4.dd\	.
.	.	.	8a/J	.	.	.
2d\	.	5	8dd\L	.	.	.
.	.	.	8ff\J	.	8dd\	.
.	.	6nr	4.bn\	.	8ff\L	.
.	.	.	.	.	8dd\	.
4G\	.	7 n	.	.	8bn\	.
.	.	.	8b\	.	8ff\J	.
=15	=15	=15	=15	=15	=15	=15
4c\	.	-	8cc\L	.	4.ee-X\	.
.	.	.	8g\	.	.	.
2C/	.	.	8cc\	.	.	.
.	.	.	8ee-X\J	.	8cc\	.
.	.	.	4.g/	.	8ee-X\L	.
.	.	.	.	.	8cc\	.
4E-X\	.	6	.	.	8g\	.
.	.	.	8cc\	.	8ee-X\J	.
=16	=16	=16	=16	=16	=16	=16
4F\	.	.	8cc\L	.	4.a/	.
.	.	.	8a\	.	.	.
2A\	.	6	8cc\	.	.	.
.	.	.	8ff\J	.	8cc\	.
.	.	.	4.cc\	.	8ff\L	.
.	.	.	.	.	8cc\	.
4F\	.	.	.	.	8a\	.
.	.	.	8a/	.	8ff\J	.
=17	=17	=17	=17	=17	=17	=17
4B-y\	.	.	8b-y\L	.	4.dd\	.
.	.	.	8f\	.	.	.
2Bn\	.	6 5	8dd\	.	.	.
.	.	.	8ff\J	.	8dd\	.
.	.	.	4.dd\	.	8gg\L	.
.	.	.	.	.	8dd\	.
4G\	.	.	.	.	8bn\	.
.	.	.	8bn\	.	8gg\J	.
=18	=18	=18	=18	=18	=18	=18
4c\	.	.	8cc\L	.	4.ee\	.
.	.	.	8g\	.	.	.
2c#X\	.	6 5	8ee\	.	.	.
.	.	.	8gg\J	.	8ee\	.
.	.	.	4.ee\	.	8aa\L	.
.	.	.	.	.	8ee\	.
4A\	.	.	.	.	8cc#X\	.
.	.	.	8cc#X\	.	8aa\J	.
=19	=19	=19	=19	=19	=19	=19
4d\	.	.	8dd\L	.	4.ff\	.
.	.	.	8a\	.	.	.
2D\	.	5	8ff\	.	.	.
.	.	.	8aa\J	.	8ff\	.
.	.	6	4.ff\	.	8bb-y\L	.
.	.	.	.	.	8ff\	.
4B-y\	.	6 5	.	.	8dd\	.
.	.	.	8dd\	.	8bb-y\J	.
!!LO:LB:g=original
=20	=20	=20	=20	=20	=20	=20
4c\	.	.	4.g/	.	8ee\L	.
.	.	.	.	.	8cc\J	.
4A\	.	6	.	.	2ff\	.
.	.	.	8cc\	.	.	.
8B-y\L	.	6 5	8dd\L	.	.	.
8G\	.	.	8b-y\	.	.	.
8c\	.	.	8g\	.	4ee\t	.
8C\J	.	.	8cc\J	.	.	.
=21	=21	=21	=21	=21	=21	=21
4F\	p	.	8a\L	.	4.ff\	.
.	.	.	8cc\	p	.	.
2A\	.	6	8ff\	.	.	.
.	.	.	8aa\J	.	8cc\	p
.	.	.	4.cc\	.	8ff\L	.
.	.	.	.	.	8cc\	.
4F\	.	.	.	.	8a\	.
.	.	.	8a/	.	8ff\J	.
=22	=22	=22	=22	=22	=22	=22
4B-y\	.	.	8b-y\L	.	4.dd\	.
.	.	.	8f\	.	.	.
2Bn\	.	6 5	8dd\	.	.	.
.	.	.	8ff\J	.	8dd\	.
.	.	.	4.dd\	.	8gg\L	.
.	.	.	.	.	8dd\	.
4G\	.	.	.	.	8bn\	.
.	.	.	8bn\	.	8gg\J	.
=23	=23	=23	=23	=23	=23	=23
4c\	.	.	8cc\L	.	4.ee\	.
.	.	.	8g\	.	.	.
2c#X\	.	6 5	8ee\	.	.	.
.	.	.	8gg\J	.	8ee\	.
.	.	.	4.ee\	.	8aa\L	.
.	.	.	.	.	8ee\	.
4A\	.	.	.	.	8cc#X\	.
.	.	.	8cc#X\	.	8aa\J	.
=24	=24	=24	=24	=24	=24	=24
4d\	.	.	8dd\L	.	4.ff\	.
.	.	.	8a\	.	.	.
2D\	.	5	8ff\	.	.	.
.	.	.	8aa\J	.	8ff\	.
.	.	6	4.ff\	.	8bb-y\L	.
.	.	.	.	.	8ff\	.
4B-y\	.	6 5	.	.	8dd\	.
.	.	.	8dd\	.	8bb-y\J	.
=25	=25	=25	=25	=25	=25	=25
4c\	.	.	4.g/	.	8ee\L	.
.	.	.	.	.	8cc\J	.
4A\	.	.	.	.	2ff\	.
.	.	.	8cc\	.	.	.
8B-y\L	.	6 5	8dd\L	.	.	.
8G\	.	.	8b-y\	.	.	.
8c\	.	.	8g\	.	4ee\t	.
8C\J	.	.	8cc\J	.	.	.
=26	=26	=26	=26	=26	=26	=26
[2FF/	.	.	[2a/	.	[2ff\	.
4.FF/]	.	.	4.a/]	.	4.ff\]	.
8ryy	.	.	8ryy	.	8ryy	.
=:|!	=:|!	=:|!	=:|!	=:|!	=:|!	=:|!
*-	*-	*-	*-	*-	*-	*-
!!!SMS: RV 69 / Estienne Roger (No. 363), Amsterdam [facs.]
!!!ENC: Fran Bennion   rev. 05/12/21 E Correia
!!!END: 2004/10/04
!!!ONB: Converted from MuseData with musedata2hum on Sat May 11 12:01:54 2024
!!!YEM: (C) 2004, 2019 Center for Computer Assisted Research in the Humanities
!!!system-decoration: [(s1,s2,s3)]
!!!URL-info: https://wiki.ccarh.org/wiki/MuseData:_Antonio_Vivaldi#Op._1:_Suonate_da_camera_a_tr.C3.A8.2C_due_violini_e_violone_o_cembalo Information about Vivaldi Op. 1 on the CCARH wiki
!!!URL-pdf: https://pdf.musedata.org/vivaldi-op01-no05.pdf#page=2 MuseData edition
!!!URL-pdf: https://s9.imslp.org/files/imglnks/usimg/1/18/IMSLP280399-PMLP10351-Vivaldi_Sonatas_Op_1_-_Violino_Primo.pdf#page=8 Violino primo part, Amsterdam: Estienne Roger, n.d.(ca.1723). Plate 363.
!!!URL-pdf: https://s9.imslp.org/files/imglnks/usimg/d/d5/IMSLP280400-PMLP10351-Vivaldi_Sonatas_Op_1_-_Violino_Secondo.pdf#page=8 Violino secondo part, Amsterdam: Estienne Roger, n.d.(ca.1723). Plate 363.
!!!URL-pdf: https://s9.imslp.org/files/imglnks/usimg/8/89/IMSLP280401-PMLP10351-Vivaldi_Sonatas_Op_1_-_Organo_e_Violoncello.pdf#page=8 Organo e Violoncello parts, Amsterdam: Estienne Roger, n.d.(ca.1723). Plate 363.
!!!URL-youtube: https://www.youtube.com/watch?v=P5HHPe_W6Uo&t=1080s L'Arte dell'Arco
!!!title: @{OTL}, mov. @{OMV}
!!!filter-vcross: vcross
!!!EEV: 2024/05/11
!!!source-file: https://bitbucket.org/musedata/vivaldi/src/master/roger/op1/no05/stage2/02/01
!!!source-file: https://bitbucket.org/musedata/vivaldi/src/master/roger/op1/no05/stage2/02/02
!!!source-file: https://bitbucket.org/musedata/vivaldi/src/master/roger/op1/no05/stage2/02/03
!!!source-file: https://bitbucket.org/musedata/vivaldi/src/master/roger/op1/no05/stage2/02/04
